icons/svg/book-open.svg

﻿<?xml version="1.0" encoding="utf-8"?>
<!DOCTYPE svg PUBLIC "-//W3C//DTD SVG 1.1//EN" "http://www.w3.org/Graphics/SVG/1.1/DTD/svg11.dtd">
<svg xmlns="http://www.w3.org/2000/svg" xmlns:xlink="http://www.w3.org/1999/xlink" version="1.1" baseProfile="full" width="24" height="24" viewBox="0 0 24.00 24.00" enable-background="new 0 0 24.00 24.00" xml:space="preserve">
	<path fill="#000000" fill-opacity="1" stroke-width="0.2" stroke-linejoin="round" d="M 12.9975,12.0025L 20,12.0025L 20,13.5012L 12.9975,13.5012M 12.9975,9.5025L 20,9.5025L 20,11.0012L 12.9975,11.0012M 12.9975,14.5025L 20,14.5025L 20,16.0012L 12.9975,16.0012M 21.0013,3.99875L 2.9975,3.99875C 1.9,3.99875 1.00125,4.9025 1.00125,6.00125L 1.00125,18.9988C 1.00125,20.0975 1.9,21.0012 2.9975,21.0012L 21.0013,21.0012C 22.1,21.0012 22.9975,20.0975 22.9975,18.9988L 22.9975,6.00125C 22.9975,4.9025 22.1,3.99875 21.0013,3.99875 Z M 21.0013,18.9988L 12.0025,18.9988L 12.0025,6.00125L 21.0013,6.00125"/>
</svg>

<svg xmlns="http://www.w3.org/2000/svg" version="1.1" baseProfile="full" width="24" height="24" viewBox="0 0 24.00 24.00" xml:space="preserve"><path fill="#000" fill-opacity="1" stroke-width=".2" stroke-linejoin="round" d="M12.998 12.002H20v1.5h-7.002m0-4H20v1.5h-7.002m0 3.5H20v1.5h-7.002M21 3.998H2.998C1.9 4 1 4.9 1 6v13c0 1.098.9 2 1.998 2H21c1.1 0 1.997-.902 1.997-2V6c0-1.098-.897-2-1.996-2zm0 15h-8.998V6h9"/></svg>
